packages/core/src/svgs/omi.svg

<svg width="24" height="24" viewBox="0 0 24 24" fill="none" xmlns="http://www.w3.org/2000/svg">
<g clip-path="url(#clip0_31_15370)">
<path d="M0 0H24V24H0V0Z" fill="#353535"/>
<path fill-rule="evenodd" clip-rule="evenodd" d="M12.8401 5.30984C12.8637 5.19304 12.8627 5.0726 12.8372 4.95621C12.8116 4.83981 12.7621 4.73002 12.6918 4.63384C12.6214 4.53766 12.5318 4.4572 12.4286 4.39761C12.3254 4.33801 12.2109 4.30059 12.0925 4.28772C11.974 4.27486 11.8542 4.28684 11.7406 4.3229C11.627 4.35895 11.5222 4.4183 11.4328 4.49714C11.3435 4.57598 11.2716 4.67258 11.2216 4.78078C11.1717 4.88898 11.1449 5.00641 11.1429 5.12555C9.8572 5.16412 8.66577 5.5927 7.69291 6.29555C7.67106 6.22919 7.63331 6.16918 7.58295 6.12074C7.53259 6.07231 7.47116 6.03692 7.404 6.01766C7.33684 5.9984 7.26598 5.99585 7.19761 6.01024C7.12924 6.02462 7.06542 6.05551 7.01172 6.1002C6.95801 6.14489 6.91605 6.20204 6.88948 6.26666C6.86291 6.33128 6.85254 6.40141 6.85928 6.47096C6.86602 6.5405 6.88966 6.60734 6.92814 6.66566C6.96662 6.72398 7.01877 6.772 7.08006 6.80555C6.40557 7.43885 5.88321 8.21665 5.55218 9.08061C5.22114 9.94457 5.09001 10.8723 5.16863 11.7941C5.141 11.9033 5.13518 12.0169 5.15149 12.1284L5.14291 12.4798C5.14574 13.981 5.69562 15.4297 6.6896 16.5546C7.68359 17.6795 9.05352 18.4036 10.5429 18.5913C11.8693 18.9922 13.2913 18.9402 14.5849 18.4436C15.8784 17.947 16.9699 17.0339 17.6872 15.8484L17.7858 15.857C17.9118 15.8569 18.0351 15.8198 18.1402 15.7502C18.2453 15.6806 18.3277 15.5817 18.377 15.4657C18.4263 15.3497 18.4404 15.2217 18.4176 15.0977C18.3948 14.9738 18.336 14.8592 18.2486 14.7684C18.9367 13.5345 19.176 12.1003 18.9258 10.7098C19.036 10.682 19.1307 10.6115 19.189 10.5138C19.2472 10.4162 19.2643 10.2994 19.2365 10.1891C19.2086 10.0789 19.1381 9.98419 19.0405 9.92592C18.9428 9.86765 18.826 9.85056 18.7158 9.87841C18.4431 9.04297 17.9945 8.27571 17.4001 7.62841C17.4508 7.5913 17.4928 7.54348 17.523 7.48832C17.5533 7.43317 17.571 7.37204 17.5749 7.30927C17.5789 7.2465 17.569 7.18364 17.5459 7.12513C17.5228 7.06663 17.4871 7.01392 17.4414 6.97075C17.3957 6.92757 17.341 6.89499 17.2813 6.87532C17.2215 6.85565 17.1582 6.84936 17.0958 6.85691C17.0333 6.86446 16.9733 6.88566 16.92 6.919C16.8667 6.95234 16.8213 6.99701 16.7872 7.04984C15.9934 6.3923 15.0474 5.94435 14.0358 5.74698C13.6586 5.5627 13.2558 5.4127 12.8401 5.30984ZM16.7272 7.1827C16.0798 6.63726 15.3249 6.23423 14.5115 5.99984C14.6143 6.05984 14.7172 6.12841 14.8201 6.19698C16.2239 6.92727 17.2923 8.1706 17.8029 9.66841C18.5636 11.0377 18.7736 12.6454 18.3901 14.1641C18.8625 13.0746 18.9997 11.8691 18.7843 10.7013C18.7028 10.6872 18.627 10.6498 18.5662 10.5936C18.5055 10.5374 18.4623 10.4648 18.4419 10.3845C18.4215 10.3043 18.4247 10.2199 18.4513 10.1415C18.4778 10.0631 18.5265 9.99403 18.5915 9.9427C18.3203 9.1047 17.8682 8.33657 17.2672 7.6927C17.1946 7.71468 17.1176 7.71702 17.0438 7.69949C16.97 7.68195 16.9023 7.64516 16.8474 7.59288C16.7925 7.5406 16.7524 7.47469 16.7313 7.40187C16.7102 7.32906 16.7088 7.25195 16.7272 7.17841V7.1827ZM7.28577 6.85698H7.23434C6.63751 7.403 6.15742 8.06421 5.82302 8.80078C5.48862 9.53734 5.30684 10.334 5.28863 11.1427C5.54577 9.99841 6.11577 8.97412 6.9172 8.16412C7.89006 6.74984 9.45006 5.76412 11.2458 5.54984C11.2029 5.46412 11.1643 5.36555 11.1515 5.2627C9.86577 5.30127 8.67863 5.73841 7.71434 6.45841C7.70674 6.5668 7.65825 6.66825 7.57869 6.74224C7.49912 6.81624 7.39442 6.85725 7.28577 6.85698ZM18.0986 14.6527C18.5794 13.2794 18.5475 11.7786 18.0086 10.427C18.192 11.3467 18.1622 12.2961 17.9215 13.2025C17.6808 14.1089 17.2356 14.9481 16.6201 15.6556C16.3801 16.0541 16.0929 16.427 15.7672 16.7613C15.8058 16.8384 15.8315 16.9198 15.8486 17.0098C16.4358 16.667 16.9629 16.2384 17.4043 15.7284C17.2782 15.6295 17.1935 15.487 17.167 15.329C17.1404 15.1709 17.1739 15.0086 17.2608 14.8739C17.3478 14.7392 17.4819 14.6418 17.6369 14.6009C17.7919 14.56 17.9565 14.5785 18.0986 14.6527ZM17.5243 15.8013C17.0511 16.3497 16.4854 16.8109 15.8529 17.1641C15.8476 17.3246 15.7974 17.4803 15.7079 17.6136C15.6184 17.7469 15.4933 17.8524 15.3468 17.9181C15.2003 17.9837 15.0383 18.0069 14.8792 17.985C14.7202 17.9631 14.5705 17.897 14.4472 17.7941C13.5133 18.3406 12.4521 18.6318 11.3701 18.6384C12.5647 18.8363 13.7913 18.6728 14.8924 18.1688C15.9936 17.6648 16.919 16.8434 17.5501 15.8098C17.5414 15.8072 17.5328 15.8043 17.5243 15.8013ZM12.7501 5.55841L12.8015 5.4427C13.0415 5.5027 13.2729 5.57555 13.5001 5.66555L13.2686 5.64412C13.0972 5.60984 12.9258 5.57984 12.7543 5.55841H12.7501ZM11.5929 5.90127C11.7502 5.98493 11.9297 6.01751 12.1063 5.99447C12.283 5.97143 12.4481 5.89391 12.5786 5.7727C12.8029 5.76336 13.0275 5.76622 13.2515 5.78127C13.7786 5.89698 14.2801 6.08127 14.7472 6.32127L14.9186 6.44127C14.7864 6.41421 14.649 6.42946 14.526 6.48484C14.4029 6.54022 14.3004 6.63294 14.2329 6.74984C13.7352 6.59293 13.2197 6.49933 12.6986 6.47127C11.8262 6.27352 10.9213 6.26621 10.0458 6.44984C10.5337 6.19558 11.0543 6.00956 11.5929 5.89698V5.90127ZM15.4286 7.07127C15.4286 6.98127 15.4115 6.89555 15.3772 6.81412C15.7243 7.13127 16.0372 7.4827 16.3029 7.8727C16.0215 7.64106 15.7204 7.43455 15.4029 7.25555C15.4201 7.19555 15.4286 7.13555 15.4286 7.07127ZM16.5686 8.2927C16.201 7.94001 15.7907 7.63478 15.3472 7.38412C15.2915 7.4827 15.2186 7.55984 15.1201 7.61984C16.2588 8.50268 17.052 9.75686 17.3615 11.1641C17.3439 10.1554 17.0711 9.16754 16.5686 8.2927ZM13.4872 6.70698C13.7186 6.74984 13.9501 6.80984 14.1729 6.87841C14.1605 6.9175 14.1519 6.95768 14.1472 6.99841C13.9329 6.88698 13.7143 6.7927 13.4872 6.70698ZM12.6772 6.6127C13.1958 6.72841 13.6886 6.9127 14.1472 7.15698C14.1597 7.24996 14.1924 7.33907 14.243 7.41807C14.2936 7.49706 14.3609 7.56403 14.4401 7.61426C14.5193 7.6645 14.6086 7.69678 14.7016 7.70885C14.7947 7.72092 14.8892 7.71248 14.9786 7.68412C16.0929 8.52841 16.8986 9.74555 17.2158 11.147C17.1541 11.1363 17.0908 11.1393 17.0304 11.1558C16.97 11.1722 16.9139 11.2017 16.8661 11.2421C16.8183 11.2826 16.7799 11.333 16.7537 11.3899C16.7275 11.4467 16.7141 11.5087 16.7143 11.5713C16.7145 11.6435 16.733 11.7146 16.768 11.7778C16.8031 11.841 16.8535 11.8943 16.9146 11.9328C16.9758 11.9713 17.0457 11.9937 17.1178 11.9979C17.1899 12.0021 17.262 11.9881 17.3272 11.957C17.2321 12.7835 16.967 13.5814 16.5488 14.3005C16.1305 15.0197 15.5681 15.6446 14.8968 16.136C14.2255 16.6275 13.4598 16.9747 12.6478 17.1561C11.8359 17.3374 10.9952 17.3489 10.1786 17.1898C9.66434 16.937 9.19291 16.6156 8.77291 16.2341C8.83151 16.2031 8.88212 16.159 8.92077 16.1051C8.95941 16.0513 8.98504 15.9892 8.99564 15.9238C9.00623 15.8583 9.0015 15.7913 8.98183 15.728C8.96215 15.6647 8.92806 15.6069 8.88223 15.559C8.8364 15.5111 8.78009 15.4745 8.71773 15.452C8.65536 15.4296 8.58863 15.4219 8.5228 15.4296C8.45696 15.4373 8.39381 15.4602 8.3383 15.4964C8.2828 15.5326 8.23645 15.5812 8.20291 15.6384C7.42291 14.7084 6.9172 13.5384 6.81863 12.2527C6.87417 12.0716 6.86814 11.8772 6.80149 11.6998C6.81863 10.7656 7.04149 9.88698 7.43577 9.1027C7.77006 8.64841 8.16434 8.23698 8.61006 7.88984C8.63514 7.94752 8.67262 7.99898 8.71983 8.04055C8.76703 8.08213 8.82281 8.1128 8.88321 8.13039C8.9436 8.14799 9.00712 8.15207 9.06927 8.14235C9.13142 8.13264 9.19067 8.10936 9.24281 8.07417C9.29495 8.03898 9.33871 7.99275 9.37097 7.93875C9.40324 7.88475 9.42322 7.82431 9.4295 7.76173C9.43579 7.69914 9.42821 7.63593 9.40732 7.5766C9.38643 7.51727 9.35274 7.46326 9.30863 7.41841C10.3294 6.82831 11.4999 6.54833 12.6772 6.6127ZM9.18434 7.32841C9.98149 6.85698 10.8901 6.55698 11.8629 6.48412C11.1028 6.41745 10.3368 6.49302 9.60434 6.70698C8.91863 7.13555 8.33577 7.70127 7.87291 8.36555C8.0872 8.13841 8.32291 7.9327 8.57149 7.73984V7.71412C8.57169 7.64187 8.59016 7.57084 8.62518 7.50764C8.66019 7.44443 8.71062 7.39111 8.77177 7.35262C8.83293 7.31413 8.90282 7.29173 8.97495 7.2875C9.04708 7.28327 9.11911 7.29734 9.18434 7.32841ZM8.1472 15.7927C7.34561 14.8625 6.84238 13.7127 6.70291 12.4927C6.59852 12.6406 6.44999 12.7516 6.27863 12.8098C6.2872 13.1656 6.32577 13.5127 6.39434 13.847C6.8995 15.1078 7.81635 16.1605 8.99577 16.8341C9.21006 16.9241 9.43291 17.0056 9.66006 17.0656C9.28503 16.843 8.93452 16.5816 8.61434 16.2856H8.57149C8.50972 16.2856 8.44867 16.2724 8.39251 16.2467C8.33636 16.2209 8.28642 16.1834 8.24613 16.1366C8.20583 16.0898 8.17613 16.0348 8.15905 15.9755C8.14198 15.9161 8.13794 15.8538 8.1472 15.7927ZM17.4772 11.837V11.8798C17.576 12.9229 17.4094 13.9741 16.9929 14.9356C17.4991 14.1776 17.8242 13.3134 17.9431 12.4097C18.062 11.5061 17.9715 10.5872 17.6786 9.72412C17.4643 9.33841 17.2072 8.9827 16.9158 8.6527C17.313 9.49221 17.5138 10.4112 17.5029 11.3398C17.5509 11.4151 17.5742 11.5034 17.5696 11.5925C17.565 11.6816 17.5327 11.7671 17.4772 11.837ZM11.3358 5.6827C11.3658 5.72127 11.4001 5.75555 11.4386 5.78984C10.7529 5.94841 10.1186 6.21841 9.54434 6.57841C8.81103 6.79849 8.12507 7.15309 7.52149 7.62412C8.51102 6.5301 9.86891 5.83895 11.3358 5.6827ZM6.98149 9.8227C6.81006 10.3456 6.69863 10.8941 6.67291 11.4641C6.60851 11.3836 6.53012 11.3154 6.44149 11.2627C6.55897 10.7615 6.74046 10.2775 6.98149 9.8227ZM7.31577 9.02984C6.84262 9.68158 6.50191 10.4198 6.31291 11.2027C6.21329 11.1633 6.10718 11.143 6.00006 11.1427H5.99149C6.0772 10.0756 6.44577 9.08555 7.02006 8.25412C7.61579 7.65225 8.33121 7.18212 9.12006 6.87412C8.36123 7.44477 7.74387 8.18237 7.31577 9.02984ZM6.14149 12.8441L6.09863 12.8527C6.11149 12.9384 6.13291 13.0241 6.15434 13.1056L6.14149 12.8484V12.8441ZM6.50149 8.85841C6.13447 9.57347 5.91305 10.3543 5.85006 11.1556C5.66943 11.1886 5.50417 11.2787 5.37863 11.4127C5.55006 10.4613 5.94006 9.59127 6.50149 8.85412V8.85841ZM5.95291 12.857C5.76493 12.8463 5.58571 12.774 5.44291 12.6513C5.5672 13.1784 5.76006 13.6798 6.01291 14.1427C6.08782 14.1448 6.16087 14.1664 6.22479 14.2055C6.28871 14.2446 6.34126 14.2998 6.3772 14.3656C6.33434 14.207 6.29149 14.0484 6.2572 13.8856C6.12863 13.5556 6.02577 13.2127 5.95291 12.857ZM5.28434 12.5784C5.40434 13.1356 5.60149 13.6713 5.86291 14.1641C5.80389 14.1841 5.74992 14.2166 5.70477 14.2596C5.65962 14.3025 5.62437 14.3548 5.60149 14.4127C5.40085 13.8215 5.29385 13.2026 5.28434 12.5784ZM6.00006 14.9998C5.9362 14.9995 5.87324 14.9848 5.81577 14.957C6.5572 16.5856 8.00577 17.8284 9.77149 18.2998C8.50748 17.7221 7.47271 16.7386 6.83149 15.5056C6.64291 15.3041 6.4672 15.0941 6.30434 14.8713C6.26465 14.9118 6.21732 14.944 6.16509 14.966C6.11285 14.9881 6.05676 14.9996 6.00006 14.9998ZM6.42863 14.5713C6.42896 14.6334 6.4158 14.6948 6.39006 14.7513L6.6172 15.0513C6.54765 14.894 6.48474 14.7338 6.42863 14.5713ZM16.0501 16.2256C15.9386 16.367 15.8186 16.5041 15.6901 16.637C15.6728 16.6117 15.6542 16.5874 15.6343 16.5641C15.7758 16.457 15.9172 16.3456 16.0501 16.2256ZM11.9786 17.6227C12.7415 17.6227 13.4743 17.4813 14.1472 17.2241C14.1299 17.0401 14.172 16.8554 14.2672 16.697C13.1666 17.2922 11.9111 17.5388 10.6672 17.4041C10.8258 17.4641 10.9886 17.5198 11.1558 17.567C11.4258 17.6056 11.7001 17.6227 11.9786 17.6227ZM16.5086 15.5698C16.2172 15.9041 15.8872 16.2041 15.5272 16.4698C15.3548 16.3342 15.137 16.2698 14.9186 16.2898C16.1629 15.4039 17.0335 14.0873 17.3615 12.5956C17.3443 13.6798 17.0315 14.6956 16.5043 15.5698H16.5086ZM14.2929 17.627C14.2372 17.5498 14.1986 17.4556 14.1729 17.3613C13.5301 17.6056 12.8358 17.747 12.1115 17.7598C12.8419 17.8486 13.5823 17.8051 14.2972 17.6313L14.2929 17.627ZM14.1301 17.8113C13.038 18.3843 11.7965 18.6086 10.5729 18.4541C9.15863 18.0213 7.95863 17.0827 7.19149 15.857C7.70585 16.3188 8.294 16.6911 8.93149 16.9584C9.59577 17.3356 10.3372 17.597 11.1258 17.7041C12.1033 17.9857 13.135 18.0225 14.1301 17.8113ZM10.1315 17.3227L10.0372 17.3056L10.2086 17.3613L10.1315 17.3227ZM6.59577 14.5927C6.95381 15.2403 7.42563 15.8181 7.98863 16.2984C7.6072 16.0456 7.26006 15.7541 6.9472 15.4241C6.81006 15.1584 6.69006 14.8798 6.59577 14.5927ZM15.7158 6.94698C16.0886 7.32412 16.4143 7.74841 16.6801 8.20698C16.9372 8.45127 17.1686 8.72127 17.3743 9.00412C16.9807 8.20399 16.4142 7.50133 15.7158 6.94698Z" fill="white"/>
</g>
<defs>
<clipPath id="clip0_31_15370">
<rect width="24" height="24" fill="white"/>
</clipPath>
</defs>
</svg>

<svg xmlns="http://www.w3.org/2000/svg" width="24" height="24" fill="none" viewBox="0 0 24 24"><g clip-path="url(#a)"><path fill="#353535" d="M0 0h24v24H0z"/><path fill="#fff" fill-rule="evenodd" d="M12.84 5.31a.858.858 0 1 0-1.697-.184 6.2 6.2 0 0 0-3.45 1.17.428.428 0 1 0-.613.51 6.13 6.13 0 0 0-1.911 4.988.9.9 0 0 0-.018.334l-.008.352a6.17 6.17 0 0 0 5.4 6.111 6.24 6.24 0 0 0 7.144-2.743l.099.009a.643.643 0 0 0 .463-1.089 6.1 6.1 0 0 0 .677-4.058.429.429 0 1 0-.21-.832 6.15 6.15 0 0 0-1.316-2.25.429.429 0 1 0-.613-.578 6.16 6.16 0 0 0-2.751-1.303 6 6 0 0 0-1.196-.437m3.887 1.873A6 6 0 0 0 14.511 6q.154.092.31.197a6.15 6.15 0 0 1 2.982 3.471c.76 1.37.97 2.977.587 4.496.473-1.09.61-2.295.394-3.463a.43.43 0 0 1-.192-.758 6 6 0 0 0-1.325-2.25.429.429 0 0 1-.54-.515zm-9.441-.326h-.052a6 6 0 0 0-1.945 4.286 6.14 6.14 0 0 1 1.628-2.979 6.14 6.14 0 0 1 4.329-2.614.9.9 0 0 1-.095-.287 6.03 6.03 0 0 0-3.437 1.195.43.43 0 0 1-.428.399m10.813 7.796a6.03 6.03 0 0 0-.09-4.226 6.14 6.14 0 0 1-1.389 5.229 6 6 0 0 1-.853 1.105 1 1 0 0 1 .082.249 6.2 6.2 0 0 0 1.555-1.282.643.643 0 0 1 .695-1.075m-.575 1.148a6.2 6.2 0 0 1-1.671 1.363.857.857 0 0 1-1.406.63 6.17 6.17 0 0 1-3.077.844 6.08 6.08 0 0 0 6.18-2.828zM12.75 5.558l.052-.115c.24.06.47.133.698.223l-.231-.022a7 7 0 0 0-.515-.086zm-1.157.343a.86.86 0 0 0 .986-.128q.336-.015.672.008c.528.116 1.03.3 1.496.54l.172.12a.64.64 0 0 0-.686.309 6.2 6.2 0 0 0-1.534-.279 6.2 6.2 0 0 0-2.653-.021 6 6 0 0 1 1.547-.553zm3.836 1.17a.7.7 0 0 0-.052-.257c.347.317.66.669.926 1.059a6 6 0 0 0-.9-.617.7.7 0 0 0 .026-.185m1.14 1.222a6 6 0 0 0-1.222-.909.63.63 0 0 1-.227.236 6.16 6.16 0 0 1 2.242 3.544 6 6 0 0 0-.793-2.871m-3.082-1.586c.232.043.463.103.686.171a.6.6 0 0 0-.026.12 6 6 0 0 0-.66-.291m-.81-.094c.519.115 1.012.3 1.47.544a.643.643 0 0 0 .832.527 6 6 0 0 1 2.237 3.463.427.427 0 0 0-.502.424.43.43 0 0 0 .613.386 6.034 6.034 0 0 1-7.148 5.233 6 6 0 0 1-1.406-.956.428.428 0 1 0-.57-.596 5.97 5.97 0 0 1-1.384-3.385.86.86 0 0 0-.018-.553c.018-.934.24-1.813.635-2.597A6.2 6.2 0 0 1 8.61 7.89a.428.428 0 1 0 .699-.472 6.07 6.07 0 0 1 3.368-.805m-3.493.715a6.15 6.15 0 0 1 2.679-.844 6.1 6.1 0 0 0-2.259.223 6 6 0 0 0-1.731 1.659c.214-.228.45-.433.698-.626v-.026a.428.428 0 0 1 .613-.386m-1.037 8.465a6.1 6.1 0 0 1-1.444-3.3.86.86 0 0 1-.424.317q.012.535.115 1.037a6.02 6.02 0 0 0 2.602 2.987c.214.09.437.172.664.232a6.2 6.2 0 0 1-1.046-.78h-.043a.43.43 0 0 1-.424-.493m9.33-3.956v.043a6.2 6.2 0 0 1-.484 3.056 5.94 5.94 0 0 0 .686-5.212 6 6 0 0 0-.763-1.071c.397.84.598 1.758.587 2.687a.43.43 0 0 1-.026.497m-6.141-6.154a1 1 0 0 0 .103.107 6.2 6.2 0 0 0-1.895.788c-.733.22-1.419.575-2.023 1.046a6 6 0 0 1 3.815-1.941M6.98 9.823a6.2 6.2 0 0 0-.308 1.641.9.9 0 0 0-.232-.201c.118-.502.3-.985.54-1.44m.335-.793a6.2 6.2 0 0 0-1.003 2.173.9.9 0 0 0-.313-.06h-.009a5.9 5.9 0 0 1 1.03-2.889 6.05 6.05 0 0 1 2.1-1.38A6.2 6.2 0 0 0 7.315 9.03M6.14 12.844l-.042.009c.012.085.034.171.055.253l-.013-.258zm.36-3.986a6.1 6.1 0 0 0-.65 2.298.86.86 0 0 0-.472.257A5.95 5.95 0 0 1 6.5 8.854zm-.548 3.999a.86.86 0 0 1-.51-.206c.124.527.317 1.029.57 1.492a.43.43 0 0 1 .364.223 9 9 0 0 1-.12-.48 6.3 6.3 0 0 1-.304-1.029m-.669-.279c.12.558.317 1.093.579 1.586a.43.43 0 0 0-.262.249 6 6 0 0 1-.317-1.835M6 15a.4.4 0 0 1-.184-.043A6.08 6.08 0 0 0 9.77 18.3a6.24 6.24 0 0 1-2.94-2.794 7 7 0 0 1-.527-.635A.43.43 0 0 1 6 15m.429-.429a.4.4 0 0 1-.039.18l.227.3a6 6 0 0 1-.188-.48m9.621 1.655a5 5 0 0 1-.36.411 1 1 0 0 0-.056-.073q.215-.16.416-.338m-4.071 1.397c.763 0 1.495-.142 2.168-.399a.87.87 0 0 1 .12-.527 6.17 6.17 0 0 1-3.6.707q.239.091.489.163.405.057.823.056m4.53-2.053a6 6 0 0 1-.982.9.86.86 0 0 0-.608-.18 6.16 6.16 0 0 0 2.442-3.694 5.9 5.9 0 0 1-.857 2.974zm-2.216 2.057a.8.8 0 0 1-.12-.266 6.1 6.1 0 0 1-2.062.399c.73.089 1.471.045 2.186-.129zm-.163.184a6.03 6.03 0 0 1-3.557.643 6.12 6.12 0 0 1-3.382-2.597 6.2 6.2 0 0 0 1.74 1.101 6.1 6.1 0 0 0 2.195.746c.977.282 2.009.319 3.004.107m-3.998-.488-.095-.017.172.055zm-3.536-2.73a6.2 6.2 0 0 0 1.393 1.705 6 6 0 0 1-1.042-.874 6 6 0 0 1-.351-.831m9.12-7.646c.373.377.698.801.964 1.26.257.244.489.514.694.797a6 6 0 0 0-1.658-2.057" clip-rule="evenodd"/></g><defs><clipPath id="a"><path fill="#fff" d="M0 0h24v24H0z"/></clipPath></defs></svg>
